X:1
T:QUICK MARCH IN CYMON
T:QUICK MARCH IN CYMON
T:Michael Arne (1770)
C:Michael Arne (1770)
%%score 1 2 3
L:1/8
M:2/4
K:Bb
V:1 treble 
V:2 treble 
V:3 bass 
V:1
|: BB/B/ BB | BBBF x4 | BFBF | dBBb | fffb | dddf | Bc/d/ e/d/c/B/ | fF F :: A/B/ x3 | c>d c>d | %10
 e>d cB | AFGA | B/c/d/e/ f2 | c>d B>d | e>dcB | AF G/B/A/c/ | B2 z ::!p! d x3 | g2 db | g2 db | %20
 gbdb | g2 z b | aa a/g/f/e/ | ddd/e/f/g/ | aaaa | d2 z ::!f! d/e/ x3 | .f.f .f d/e/ | %28
 .f.f .f/e/d/c/ | BBcc | d/c/d/e/ dd/e/ | .f.f .f d/e/ | .f.f .f/e/d/c/ | BB c/B/c/d/ | B2 z :: %35
!p! B/c/ x3 | .d.c.d.c | .B.A.G.F | .G.B.A.c | B/A/B/c/ BB/c/ | .d.c.d.c | .B.A.G.F | GB A/B/c/A/ | %43
 B2 z :| %44
V:2
|: BB/B/ BB | BBBF BFBF | dBBf | dddf | BBBd | DD/E/ FE/D/ | FF F x | F/G/ x2 :: A>B A>B | c>B ED | %10
 CECD | D/F/B/c/ d2 | A>BA>B | c>B ED | CF EF | D2 z x | z x2 :: BdBd | BdBd | BdBd | B2 z B | %21
 AA A/G/F/E/ | DD D/E/F/G/ | AAAA | D2 z x | B/c/ x2 :: .d.d .d B/c/ | .d.d .d F/E/ | DDAA | %29
 B/A/B/c/ BB/c/ | .d.d .d B/c/ | .d.d.dF | DD E/D/E/F/ | D2 z x | D/F/ x2 :: .B.A.B.A | .G.F.E.D | %37
 .E.G.C.E | D/C/D/E/ DD/F/ | .B.A.B.A | .G.F.E.D | EG FE | D2 z x | x3 :| %44
V:3
|: B,,B,,/B,,/ B,,B,, | B,,B,,B,,F,, x4 | B,,F,,B,,F,, | D,B,, B,, z | B,B,, B,, z | B,B,, B,, z | %6
 B,B,,B,,B, | F,F,, F,, :: z x3 | F,F,F,F, | F,F,F,F, | F,F,F,F, | B,B,B,B,, | %13
 [F,A,][F,A,][F,A,][F,A,] | F,F, F,2 | F,2 F,,2 | B,,2 z :: z x3 | G,2 z2 | G,2 z2 | G,2 G,2 | %21
 G,2 z2 | A,2 z2 | D,2 z2 | A,A,A,A, | D,2 z :: z x3 | .B,.B, .B, z | .B,.B, .B, z | B,B, F,F, | %30
 B,B, B, z | .B,.B, .B, z | .B,.B, .B, z | B,2 F,2 | B,,2 z :: z x3 | .B, z .B, z | .B, z .B, z | %38
 .E,2 .F,2 | B,,B,, B,, z | .B, z .B, z | .B, z .B, z | E,2 F,2 | B,,2 z :| %44

